X:1
T:Martha Campbell
L:1/8
M:none
I:linebreak $
K:D
V:1 treble nm="Voice" snm="Voice"
V:1
"D" DEFA BFAF | DEFA BFAF | DEFA BFAF | A4 E4 |$ DEFA BFAF | DEFA BdBd | ABde fgfe | dBAF D4 ::$ %8
 ABde fdfd | efde fdfd | ABde f4 | fedf edBd |$ ABde fdfd | efde f2 a2- | abag fgfe | dBAF D4 :| %16
